src/assets/profile-icon-white.svg

<svg width="22" height="28" viewBox="0 0 22 28" fill="none" xmlns="http://www.w3.org/2000/svg">
<path d="M11.3542 13.7588C15.2719 13.7588 18.4479 10.7156 18.4479 6.96163C18.4479 3.20764 15.2719 0.164429 11.3542 0.164429C7.43645 0.164429 4.2605 3.20764 4.2605 6.96163C4.2605 10.7156 7.43645 13.7588 11.3542 13.7588Z" fill="white"/>
<path d="M22 22.2503V27.3176H0.708374V22.2503" fill="white"/>
<path d="M22 23.0575V19.336C22 17.1881 20.0209 15.4582 17.5629 15.4582H5.1455C2.68754 15.4582 0.708374 17.1881 0.708374 19.336V23.0575" fill="white"/>
</svg>

<svg width="22" height="28" fill="none" xmlns="http://www.w3.org/2000/svg"><path d="M11.354 13.759c3.918 0 7.094-3.043 7.094-6.797 0-3.754-3.176-6.798-7.094-6.798S4.261 3.208 4.261 6.962s3.175 6.797 7.093 6.797zM22 22.25v5.068H.708V22.25" fill="#fff"/><path d="M22 23.058v-3.722c0-2.148-1.98-3.878-4.437-3.878H5.146c-2.458 0-4.438 1.73-4.438 3.878v3.722" fill="#fff"/></svg>
